Public/Mountain.svg

<?xml version="1.0" encoding="UTF-8" standalone="no"?>
<svg
   width="360"
   height="450"
   viewBox="0 0 360 450"
   fill="none"
   version="1.1"
   id="svg845"
   sodipodi:docname="Mountain.svg"
   inkscape:version="1.1 (c4e8f9e, 2021-05-24)"
   xmlns:inkscape="http://www.inkscape.org/namespaces/inkscape"
   xmlns:sodipodi="http://sodipodi.sourceforge.net/DTD/sodipodi-0.dtd"
   xmlns:xlink="http://www.w3.org/1999/xlink"
   xmlns="http://www.w3.org/2000/svg"
   xmlns:svg="http://www.w3.org/2000/svg">
  <sodipodi:namedview
     id="namedview847"
     pagecolor="#ffffff"
     bordercolor="#111111"
     borderopacity="1"
     inkscape:pageshadow="0"
     inkscape:pageopacity="0"
     inkscape:pagecheckerboard="1"
     showgrid="false"
     inkscape:zoom="1.94"
     inkscape:cx="71.391753"
     inkscape:cy="211.34021"
     inkscape:window-width="2880"
     inkscape:window-height="1620"
     inkscape:window-x="0"
     inkscape:window-y="0"
     inkscape:window-maximized="0"
     inkscape:current-layer="svg845" />
  <g
     filter="url(#filter0_d)"
     id="g826">
    <path
       d="M164.948 281.444C175.443 264.886 173.054 243.751 183.611 227.313C200.882 200.42 223.087 228.896 241.466 204.328C258.111 182.079 251.533 144.924 268.551 123.548C292.602 93.3381 323.251 157.572 344.495 121.549C353.799 105.775 357.411 88.4614 360 70V450H0C0.375608 447.285 0.78688 444.567 1.23988 441.839C9.07014 394.669 56.6397 398.443 86.8504 356.978C99.4553 339.677 103.772 323.808 117.477 309.259C134.176 291.532 150.455 304.307 164.948 281.444Z"
       fill="#989cac"
       id="path824" />
  </g>
  <defs
     id="defs843">
    <linearGradient
       id="linearGradient1479"
       inkscape:swatch="solid">
      <stop
         style="stop-color:#000000;stop-opacity:1;"
         offset="0"
         id="stop1477" />
    </linearGradient>
    <filter
       id="filter0_d"
       x="-70"
       y="0"
       width="460"
       height="480"
       filterUnits="userSpaceOnUse"
       colorInterpolationFilters="sRGB">
      <feFlood
         floodOpacity="0"
         result="BackgroundImageFix"
         id="feFlood828" />
      <feColorMatrix
         in="SourceAlpha"
         type="matrix"
         values="0 0 0 0 0 0 0 0 0 0 0 0 0 0 0 0 0 0 127 0"
         result="hardAlpha"
         id="feColorMatrix830" />
      <feOffset
         dx="-20"
         dy="-20"
         id="feOffset832" />
      <feGaussianBlur
         stdDeviation="25"
         id="feGaussianBlur834" />
      <feColorMatrix
         type="matrix"
         values="0 0 0 0 0 0 0 0 0 0 0 0 0 0 0 0 0 0 0.2 0"
         id="feColorMatrix836" />
      <feBlend
         mode="normal"
         in2="BackgroundImageFix"
         result="effect1_dropShadow"
         id="feBlend838" />
      <feBlend
         mode="normal"
         in="SourceGraphic"
         in2="effect1_dropShadow"
         result="shape"
         id="feBlend840" />
    </filter>
    <linearGradient
       inkscape:collect="always"
       xlink:href="#linearGradient1479"
       id="linearGradient1481"
       x1="-69.845361"
       y1="239.94846"
       x2="389.94845"
       y2="239.94846"
       gradientUnits="userSpaceOnUse" />
  </defs>
  <path
     style="fill:url(#linearGradient1481);stroke-width:0.515464;fill-opacity:1"
     d="M -69.845361,239.94845 V 0.25773196 H 160.05155 389.94845 V 239.94845 479.63918 H 160.05155 -69.845361 Z m 429.847071,19.97423 -0.0498,-190.335051 -1.20857,6.958763 c -3.04465,17.530582 -6.1553,28.157738 -11.26951,38.500898 -5.50792,11.13942 -10.09927,15.97017 -16.37122,17.22483 -5.7715,1.15455 -11.24975,-0.88522 -28.18956,-10.49612 -9.22042,-5.23125 -13.977,-6.77114 -20.01821,-6.48066 -5.68466,0.27333 -8.7622,1.79421 -12.97923,6.41419 -7.5816,8.30604 -10.75413,16.95931 -15.28567,41.69253 -3.72651,20.33934 -5.32953,26.03168 -9.71352,34.4927 -4.95401,9.56118 -12.10986,15.49173 -20.19801,16.73951 -1.71418,0.26446 -7.76582,0.35142 -13.44808,0.19327 -9.5622,-0.26615 -10.6022,-0.20531 -13.96876,0.81725 -7.27167,2.2087 -13.1151,8.34702 -17.49305,18.37583 -2.00522,4.59346 -3.18947,8.74818 -6.31785,22.16495 -3.018,12.94341 -4.92294,18.39908 -8.466,24.24622 -5.94598,9.81272 -11.80984,13.7553 -25.59164,17.20661 -4.39433,1.10045 -9.08621,2.47741 -10.4264,3.05992 -10.22712,4.44515 -17.56013,13.11079 -29.506466,34.86869 -10.687902,19.4659 -17.238042,28.19548 -28.27031,37.67676 -6.884329,5.91648 -12.816747,9.97972 -27.426077,18.78475 -6.231232,3.75555 -13.069201,7.9844 -15.19549,9.39744 -13.794665,9.16732 -21.8907728,19.30047 -25.7356955,32.211 -0.8357938,2.80645 -3.11624222,14.6436 -3.12753604,16.23417 -0.00151,0.21263 81.06684054,0.3866 180.15189454,0.3866 h 180.15464 l -0.0498,-190.33505 z"
     id="path1157" />
  <path
     style="fill:#550000;fill-opacity:0.01214575;stroke-width:0.515464"
     d="M -69.845361,239.94845 V 0.25773196 H 160.05155 389.94845 V 239.94845 479.63918 H 160.05155 -69.845361 Z m 429.847071,19.97423 -0.0498,-190.335051 -1.20857,6.958763 c -3.04465,17.530582 -6.1553,28.157738 -11.26951,38.500898 -5.50792,11.13942 -10.09927,15.97017 -16.37122,17.22483 -5.7715,1.15455 -11.24975,-0.88522 -28.18956,-10.49612 -9.22042,-5.23125 -13.977,-6.77114 -20.01821,-6.48066 -5.68466,0.27333 -8.7622,1.79421 -12.97923,6.41419 -7.5816,8.30604 -10.75413,16.95931 -15.28567,41.69253 -3.72651,20.33934 -5.32953,26.03168 -9.71352,34.4927 -4.95401,9.56118 -12.10986,15.49173 -20.19801,16.73951 -1.71418,0.26446 -7.76582,0.35142 -13.44808,0.19327 -9.5622,-0.26615 -10.6022,-0.20531 -13.96876,0.81725 -7.27167,2.2087 -13.1151,8.34702 -17.49305,18.37583 -2.00522,4.59346 -3.18947,8.74818 -6.31785,22.16495 -3.018,12.94341 -4.92294,18.39908 -8.466,24.24622 -5.94598,9.81272 -11.80984,13.7553 -25.59164,17.20661 -4.39433,1.10045 -9.08621,2.47741 -10.4264,3.05992 -10.22712,4.44515 -17.56013,13.11079 -29.506466,34.86869 -10.687902,19.4659 -17.238042,28.19548 -28.27031,37.67676 -6.884329,5.91648 -12.816747,9.97972 -27.426077,18.78475 -6.231232,3.75555 -13.069201,7.9844 -15.19549,9.39744 -13.794665,9.16732 -21.8907728,19.30047 -25.7356955,32.211 -0.8357938,2.80645 -3.11624222,14.6436 -3.12753604,16.23417 -0.00151,0.21263 81.06684054,0.3866 180.15189454,0.3866 h 180.15464 l -0.0498,-190.33505 z"
     id="path1483" />
  <path
     style="fill:#550000;fill-opacity:0.43724698;stroke-width:0.515464"
     d="M -69.587629,239.94845 V 0 H 160.05155 389.69072 V 239.94845 479.89691 H 160.05155 -69.587629 Z M 360.2936,259.92268 c -0.009,-104.54253 -0.21027,-189.729381 -0.44811,-189.304123 -0.23785,0.425257 -0.58872,2.048969 -0.77972,3.608247 -0.8109,6.619892 -4.05259,21.045845 -6.21557,27.660126 -2.72443,8.33116 -8.03166,19.31343 -11.31216,23.40825 -3.92602,4.90057 -8.01832,7.1154 -13.22283,7.15642 -4.99462,0.0394 -10.77641,-2.25203 -21.35645,-8.46385 -11.72473,-6.88391 -16.66664,-8.74952 -23.19587,-8.75666 -4.06521,-0.005 -4.98994,0.17321 -7.47423,1.43588 -7.87768,4.00393 -14.30415,14.34965 -17.99182,28.96432 -0.85666,3.39506 -2.61971,11.9712 -3.91787,19.05811 -2.64825,14.45726 -3.6699,18.78449 -5.98555,25.35185 -2.86188,8.1165 -6.14293,13.56447 -10.82965,17.98195 -6.59305,6.21429 -9.54504,6.98656 -26.00859,6.80413 -11.86282,-0.13145 -12.44011,-0.0915 -15.28738,1.05838 -6.23676,2.51871 -11.29348,7.70588 -15.3583,15.75452 -2.54963,5.04845 -3.96904,9.67765 -6.89389,22.48348 -4.63192,20.27988 -7.86262,27.33843 -15.99449,34.94541 -4.4057,4.12131 -8.19422,5.88039 -18.07267,8.39145 -9.03643,2.29703 -15.02872,4.86038 -18.87087,8.07252 -6.58601,5.50606 -13.09046,14.5851 -21.886307,30.54938 -9.245892,16.7811 -14.22734,23.8475 -22.922211,32.51619 -7.959402,7.93543 -14.297371,12.49304 -33.298485,23.94481 -7.236257,4.36122 -15.028226,9.27282 -17.315484,10.91466 C 14.381536,411.55053 7.1656649,420.80254 3.4160412,431.97247 2.1608505,435.71161 0,446.35698 0,448.80149 V 450 h 180.15464 180.15464 l -0.0157,-190.07732 z"
     id="path3765" />
</svg>

<svg fill="none" xmlns="http://www.w3.org/2000/svg" viewBox="0 0 359 450">
<g filter="url(#filter0_d)">
<path d="M164.948 281.444c10.495-16.558 8.106-37.693 18.663-54.131 17.271-26.893 39.476 1.583 57.855-22.985 16.645-22.249 10.067-59.404 27.085-80.78 24.051-30.21 54.7 34.024 75.944-1.999C353.799 105.775 357.411 88.461 360 70v380H0c.376-2.715.787-5.433 1.24-8.161 7.83-47.17 55.4-43.396 85.61-84.861 12.605-17.301 16.922-33.17 30.627-47.719 16.699-17.727 32.978-4.952 47.471-27.815z" fill="#0D0F16"/>
</g>
<defs>
<filter id="filter0_d" x="-70" y="0" width="460" height="480" filterUnits="userSpaceOnUse" color-interpolation-filters="sRGB">
<feFlood flood-opacity="0" result="BackgroundImageFix"/>
<feColorMatrix in="SourceAlpha" values="0 0 0 0 0 0 0 0 0 0 0 0 0 0 0 0 0 0 127 0" result="hardAlpha"/>
<feOffset dx="-20" dy="-20"/>
<feGaussianBlur stdDeviation="25"/>
<feColorMatrix values="0 0 0 0 0 0 0 0 0 0 0 0 0 0 0 0 0 0 0.2 0"/>
<feBlend in2="BackgroundImageFix" result="effect1_dropShadow"/>
<feBlend in="SourceGraphic" in2="effect1_dropShadow" result="shape"/>
</filter>
</defs>
</svg>
